src/lib/packages/icons/src/assets/line/toggle-off.svg

<svg xmlns="http://www.w3.org/2000/svg" width="24" height="24" fill="none"><path fill="currentColor" d="M20.947 10.066A2.699 2.699 0 0 0 19 9.25h-8.142A4.737 4.737 0 0 0 7 7.25 4.756 4.756 0 0 0 2.25 12 4.756 4.756 0 0 0 7 16.75a4.737 4.737 0 0 0 3.858-2H19A2.752 2.752 0 0 0 21.75 12c0-.743-.29-1.435-.803-1.934ZM7 15.25A3.254 3.254 0 0 1 3.75 12 3.254 3.254 0 0 1 7 8.75 3.254 3.254 0 0 1 10.25 12 3.254 3.254 0 0 1 7 15.25Zm12-2h-7.438c.11-.401.188-.814.188-1.25a4.7 4.7 0 0 0-.188-1.25H19c.335 0 .645.129.887.377.234.228.363.538.363.873 0 .689-.561 1.25-1.25 1.25Z"/></svg>

<svg width="24" height="24" viewBox="0 0 24 24" fill="none" xmlns="http://www.w3.org/2000/svg">
<path d="M20.947 10.0659C20.433 9.53992 19.742 9.25 19 9.25H10.8579C9.99591 8.044 8.592 7.25 7 7.25C4.381 7.25 2.25 9.381 2.25 12C2.25 14.619 4.381 16.75 7 16.75C8.592 16.75 9.99591 15.956 10.8579 14.75H19C20.517 14.75 21.75 13.517 21.75 12C21.75 11.257 21.46 10.5649 20.947 10.0659ZM7 15.25C5.208 15.25 3.75 13.792 3.75 12C3.75 10.208 5.208 8.75 7 8.75C8.792 8.75 10.25 10.208 10.25 12C10.25 13.792 8.792 15.25 7 15.25ZM19 13.25H11.562C11.672 12.849 11.75 12.436 11.75 12C11.75 11.565 11.672 11.151 11.562 10.75H19C19.335 10.75 19.645 10.879 19.887 11.127C20.121 11.355 20.25 11.665 20.25 12C20.25 12.689 19.689 13.25 19 13.25Z" fill="currentColor"/>
</svg>
